OFDR/img/guarantees/doc.svg

<svg width="37" height="48" viewBox="0 0 37 48" fill="none" xmlns="http://www.w3.org/2000/svg">
<path id="doc" fill-rule="evenodd" clip-rule="evenodd" d="M8.67054 0H33.962C35.6371 0 37 1.38056 37 3.07763V39.216C37 40.9131 35.6371 42.2937 33.9619 42.2937H31.3664V45.8038C31.3664 47.0148 30.3939 48 29.1984 48H2.16801C0.972627 48 0 47.0149 0 45.8038V7.90256C0 6.69159 0.972535 5.70628 2.16801 5.70628H5.63263V3.07763C5.63263 1.38056 6.99533 0 8.67054 0ZM2.1879 45.7836H29.1785V17.6182H22.0836C20.7183 17.6182 19.6076 16.4931 19.6076 15.11V7.92253H2.1879V45.7836ZM21.7957 9.48994L27.6316 15.4019H22.0837C21.9249 15.4019 21.7957 15.271 21.7957 15.1102V9.48994ZM31.3665 40.0772H33.962C34.4308 40.0772 34.8121 39.6908 34.812 39.216H34.8119V3.07763C34.8119 2.60278 34.4305 2.21653 33.9618 2.21653H8.67045C8.20172 2.21653 7.82044 2.60287 7.82044 3.07763V5.70638H20.7017C21.003 5.70638 21.2759 5.82984 21.4738 6.02962C21.4741 6.03009 21.4747 6.03038 21.4752 6.03084L31.0462 15.7266C31.2491 15.9323 31.358 16.2052 31.3645 16.4846C31.3651 16.4932 31.3665 16.5012 31.3665 16.5102V40.0772Z" fill="#86ADEF"/>
</svg>

<svg width="37" height="48" fill="none" xmlns="http://www.w3.org/2000/svg"><path fill-rule="evenodd" clip-rule="evenodd" d="M8.67 0h25.292C35.637 0 37 1.38 37 3.078v36.138c0 1.697-1.363 3.078-3.038 3.078h-2.596v3.51c0 1.21-.972 2.196-2.168 2.196H2.168C.973 48 0 47.015 0 45.804V7.903c0-1.211.973-2.197 2.168-2.197h3.465V3.078C5.633 1.38 6.995 0 8.67 0zM2.189 45.784h26.99V17.618h-7.094c-1.366 0-2.476-1.125-2.476-2.508V7.923H2.188v37.86zM21.796 9.49l5.836 5.912h-5.548a.29.29 0 01-.288-.292V9.49zm9.57 30.587h2.596c.469 0 .85-.386.85-.861V3.078a.857.857 0 00-.85-.861H8.67a.857.857 0 00-.85.86v2.63h12.882c.301 0 .574.123.772.323h.001l9.571 9.697c.203.205.312.478.319.758l.002.025v23.567z" fill="#86ADEF"/></svg>
